!!!Genre:	Skotshne
!!!Mode:	Minor
!!!Listening/dance:	listening
!!!:	*g:dor; *G:; *g:dor
!!!One_Mode:	no
**kern
*I"P1
*clefG2
*k[b-e-]
*g:dor:
*M2/4
*>A
=1
8.gL
16dJk
16gLL
16b-
16a
16gJJ
=2
16f#XLL
16d
16en
16f#JJ
16gLL
16b-
16a
16gJJ
=3
16f#XLL
16d
16en
16f#JJ
16gLL
16a
16b-
16ccJJ
=4
4.dd
8a
=5
8.cc#XL
16aJk
16cc#LL
16een
16dd
16cc#JJ
=6
(16b-LL
16aJJ)
4g
8a
=7
16b-LL
16a
16b-
16aJJ
8ddL
16cc#XL
16b-JJ
=8
4.cc#X
8a
=9
8.cc#XL
16aJk
16cc#LL
16een
16dd
16cc#JJ
=10
16b-LL
16aJJ
4g
8d
=11
16dLL
16b-
16a
16gJJ
16f#XLL
16d
16en
16f#JJ
=12
4g
4G
*>bM
*G:
=13:|!|:
*>B
*k[f#]
*G:
!LO:TX:a:i:t=G-major
16ccLL
16cc
16b
16aJJ
16bLL
16d
16g
16bJJ
=14
16aLL
16d
16f#
16aJJ
16gLL
16a
16b
16ccJJ
=15
16ddLL
16dd
16cc
16bJJ
16aLL
16b
16cc
16ddJJ
=16
4.b
8gg
=17
16ggLL
16aa-X
16gg
16ff#JJ
16ggLL
16an
16b
16ccJJ
=18
16bLL
16cc
16b
16aJJ
4b
=19
16aLL
16b
16cc
16ddJJ
16bLL
16g
16a
16f#JJ
=20
4g
4G
*>eM
*g:dor
=21:|!|:
*>C
*k[b-]
!LO:TX:a:i:t=G-dorian
16cc#XLL
16dd
16ee
16ffJJ
16eeLL
16dd
16cc#
16b-JJ
=22
16cc#XLL
16dd
16ee
16ffJJ
16eeLL
16dd
16cc#
16ddJJ
=23
4.ee
8ee
=24
16eeLL
16ff
16bb-
16aaJJ
16ggLL
16ff
16ee
16ddJJ
=25
4.cc#X
8a
=26
8ddL
16cc#XL
16b-JJ
16aLL
16g
16b-
16aJJ
=27
4g
4G
*>eM
=:|!
*-
